packages/hms_room_kit/lib/src/assets/icons/lower_hand.svg

<svg width="15" height="17" viewBox="0 0 15 17" fill="none" xmlns="http://www.w3.org/2000/svg">
<path fill-rule="evenodd" clip-rule="evenodd" d="M8.04435 1.44059C7.95943 1.44059 7.87534 1.45732 7.79688 1.48982C7.71843 1.52232 7.64714 1.56995 7.58709 1.63C7.52704 1.69004 7.47941 1.76133 7.44691 1.83979C7.41441 1.91824 7.39769 2.00233 7.39769 2.08725V4.6924C7.39769 4.69276 7.39769 4.69312 7.39769 4.69348C7.39769 4.69355 7.39769 4.69362 7.39769 4.69369C7.39757 4.95339 7.18698 5.16384 6.92729 5.16378C6.66759 5.16372 6.45709 4.95318 6.45709 4.69348V4.69327C6.45709 4.69302 6.45709 4.69276 6.45709 4.6925C6.45705 4.59907 6.44181 4.22597 6.41075 3.84944C6.39528 3.66194 6.37664 3.48327 6.35558 3.34434C6.34497 3.27431 6.3349 3.22222 6.32631 3.18763C6.32612 3.18685 6.32593 3.18609 6.32574 3.18534C6.25661 3.09415 6.16435 3.02274 6.05822 2.97872C5.9401 2.92971 5.81009 2.91684 5.68465 2.94171C5.5592 2.96659 5.44395 3.02811 5.35346 3.11848C5.16969 3.30203 4.87191 3.30184 4.68836 3.11807C4.50482 2.93429 4.505 2.63651 4.68878 2.45297C4.91088 2.23114 5.19377 2.08015 5.50168 2.01909C5.80959 1.95802 6.12869 1.98963 6.41864 2.10992C6.43154 2.11527 6.44436 2.12079 6.45709 2.12647V2.08725C6.45709 1.87881 6.49815 1.67241 6.57792 1.47984C6.65768 1.28726 6.7746 1.11229 6.92199 0.964896C7.06938 0.817506 7.24436 0.700589 7.43693 0.620822C7.62951 0.541055 7.83591 0.5 8.04435 0.5C8.25279 0.5 8.45919 0.541055 8.65176 0.620822C8.84434 0.700589 9.01931 0.817506 9.1667 0.964896C9.31409 1.11229 9.43101 1.28726 9.51078 1.47984C9.59054 1.67241 9.6316 1.87881 9.6316 2.08725V2.12697C9.83319 2.03705 10.0533 1.98927 10.2783 1.98927C10.6992 1.98927 11.1029 2.1565 11.4006 2.45417C11.6983 2.75184 11.8655 3.15556 11.8655 3.57653V3.61625C12.0671 3.52632 12.2872 3.47855 12.5122 3.47855C12.9331 3.47855 13.3369 3.64578 13.6345 3.94344C13.9322 4.24111 14.0994 4.64483 14.0994 5.0658V11.3952C14.0994 12.1827 13.9113 12.9509 13.56 13.6395L14.7063 14.7858C14.89 14.9695 14.89 15.2673 14.7063 15.4509C14.5227 15.6346 14.2249 15.6346 14.0412 15.4509L13.0408 14.4505C12.9209 14.6028 12.7915 14.7486 12.6531 14.887C11.727 15.8131 10.471 16.3333 9.1613 16.3333H7.67203C7.6505 16.3333 7.629 16.3319 7.60768 16.3289C5.91601 16.0952 4.4157 15.2077 3.55476 13.8858C3.54601 13.8723 3.53795 13.8585 3.53061 13.8442L1.53536 9.96454C1.28094 9.59766 1.17734 9.14633 1.24713 8.70434C1.31895 8.24948 1.56853 7.84178 1.94095 7.57092C2.31337 7.30007 2.77814 7.18825 3.233 7.26008C3.61359 7.32017 3.96116 7.5047 4.22318 7.78152V5.63292L0.637747 2.04748C0.454084 1.86382 0.454084 1.56605 0.637747 1.38238C0.821409 1.19872 1.11918 1.19872 1.30285 1.38238L12.8519 12.9314C13.0526 12.4492 13.1588 11.9277 13.1588 11.3952V5.0658C13.1588 4.8943 13.0907 4.72982 12.9694 4.60854C12.8482 4.48727 12.6837 4.41914 12.5122 4.41914C12.3407 4.41914 12.1762 4.48727 12.0549 4.60854C11.9341 4.72934 11.866 4.893 11.8655 5.06377C11.8655 5.06445 11.8655 5.06512 11.8655 5.0658L11.8655 9.1613C11.8655 9.42104 11.655 9.6316 11.3952 9.6316C11.1355 9.6316 10.9249 9.42104 10.9249 9.1613L10.9249 5.06755C10.9249 5.06697 10.9249 5.06638 10.9249 5.0658C10.9249 5.06474 10.9249 5.06368 10.9249 5.06262L10.9249 3.57653C10.9249 3.40502 10.8568 3.24054 10.7355 3.11927C10.6142 2.998 10.4498 2.92987 10.2783 2.92987C10.1344 2.92987 9.99552 2.97779 9.88291 3.06479C9.88064 3.07501 9.87818 3.08665 9.87556 3.09984C9.85616 3.19765 9.83611 3.33866 9.8164 3.51658C9.77726 3.86994 9.74347 4.33118 9.71581 4.80212C9.66038 5.74615 9.6316 6.69318 9.6316 6.82747C9.6316 7.0872 9.42104 7.29776 9.1613 7.29776C8.90156 7.29776 8.69101 7.0872 8.69101 6.82747V2.08725C8.69101 2.00233 8.67428 1.91824 8.64178 1.83979C8.60928 1.76133 8.56165 1.69004 8.5016 1.63C8.44156 1.56995 8.37027 1.52232 8.29181 1.48982C8.21336 1.45732 8.12927 1.44059 8.04435 1.44059ZM9.89685 3.01078C9.90133 2.99722 9.90181 2.99974 9.8964 3.01217C9.89656 3.01168 9.89671 3.01122 9.89685 3.01078ZM12.3699 13.7796L7.29734 8.70708C7.21123 8.81661 7.07753 8.88696 6.92739 8.88696C6.66765 8.88696 6.45709 8.6764 6.45709 8.41667V7.86683L5.16378 6.57351V9.53362C5.16378 9.79336 4.95322 10.0039 4.69348 10.0039C4.6877 10.0039 4.68195 10.0038 4.67622 10.0036C4.49873 10.011 4.32461 9.91708 4.23802 9.74871L3.58635 8.48157C3.46258 8.32505 3.28418 8.2204 3.0863 8.18916C2.87785 8.15625 2.66485 8.20749 2.49418 8.33161C2.3235 8.45574 2.20913 8.64258 2.17621 8.85104C2.1433 9.0595 2.19454 9.27249 2.31867 9.44317C2.33286 9.46267 2.34552 9.48324 2.35655 9.50469L4.35575 13.392C5.047 14.4395 6.2708 15.1863 7.70501 15.3927H9.1613C10.2215 15.3927 11.2383 14.9716 11.988 14.2219C12.1267 14.0831 12.2542 13.9352 12.3699 13.7796ZM6.31856 3.16047C6.31858 3.16041 6.319 3.16153 6.31979 3.16397C6.31893 3.16174 6.31854 3.16052 6.31856 3.16047Z" fill="#EFF0FA"/>
</svg>

<svg xmlns="http://www.w3.org/2000/svg" width="15" height="17" fill="none" viewBox="0 0 15 17"><path fill="#EFF0FA" fill-rule="evenodd" d="M8.044 1.44a.647.647 0 0 0-.646.647v2.606a.47.47 0 0 1-.94 0 15.69 15.69 0 0 0-.047-.844 7.908 7.908 0 0 0-.055-.505 1.823 1.823 0 0 0-.03-.159.647.647 0 0 0-.973-.067.47.47 0 0 1-.664-.665 1.587 1.587 0 0 1 1.768-.327v-.039a1.587 1.587 0 0 1 3.175 0v.04a1.587 1.587 0 0 1 2.234 1.45v.04a1.587 1.587 0 0 1 2.233 1.449v6.33c0 .787-.188 1.555-.539 2.243l1.146 1.147a.47.47 0 1 1-.665.665l-1-1a4.93 4.93 0 0 1-3.88 1.882H7.672a.462.462 0 0 1-.064-.004c-1.692-.234-3.192-1.121-4.053-2.443a.476.476 0 0 1-.024-.042l-1.996-3.88a1.736 1.736 0 0 1 2.688-2.182v-2.15L.638 2.048a.47.47 0 1 1 .665-.665l11.549 11.55c.2-.483.307-1.004.307-1.537v-6.33a.647.647 0 0 0-1.293-.001V9.16a.47.47 0 1 1-.941 0V3.577a.647.647 0 0 0-1.042-.512l-.007.035c-.02.098-.04.239-.06.417-.039.353-.073.814-.1 1.285a57.322 57.322 0 0 0-.084 2.025.47.47 0 0 1-.941 0v-4.74a.647.647 0 0 0-.647-.646Zm1.853 1.57Zm2.473 10.77L7.297 8.707a.47.47 0 0 1-.84-.29v-.55L5.164 6.574v2.96a.47.47 0 0 1-.488.47.47.47 0 0 1-.438-.255l-.652-1.267a.796.796 0 0 0-1.267.961.47.47 0 0 1 .038.062l1.999 3.887c.691 1.048 1.915 1.794 3.349 2h1.456a3.998 3.998 0 0 0 3.209-1.612ZM6.319 3.16Z" clip-rule="evenodd"/></svg>
